X:1
T:Faute d'argent
T:Faute d'argent
T:André Vierendeels (O7/11/11)
C:André Vierendeels
C:(O7/11/11)
%%score [ 1 2 3 4 ]
L:1/8
Q:1/4=120
M:2/2
K:F
V:1 treble nm="Soprano" snm="S"
V:2 treble nm="Alto" snm="A"
V:3 treble-8 nm="Tenor" snm="T"
V:4 bass nm="Bass" snm="B"
V:1
 z8 | F4 G4 | F2 A2 B2 A2 | G2 c2 A4 | F4 F2 G2 | A6 G2 | BAGF G2 F2- | F2 E2 F4 | A4 B4- | %9
w: |Fau- te|d'ar- * * *|* * gent,|c'est dou- leur|non pa-|reil- * * * * *|* * le,|c'est dou-|
 B2 A2 G2 F2 | F2 E2 D4 | A4 B4- | B2 A2 G2 G2 | G2 ^F2 G4 | A4 B4- | B2 A2 G2 c2 | d6 ^c2 | d8 | %18
w: * leur non pa-|reil- * le,|c'est dou-|* leur non pa-|reil- * le,|c'est dou-|* leur non pa-|reil- *|le!|
 z4 A4- | A4 B4- | B2 A2 G4 | ^F8 | G4 G4 | A6 A2 | B8 | z4 A4 | dcBA B2 B2 | A8 | G4 GABc | %29
w: Si|_ je-|_ _ le|dis,|je sais|bien pour-|quoi:|sans|de _ _ _ _ qui-|bus,|il faut _ _ _|
 dcBA GA Bc | AGAB cB AG | F8 | z2 c2 ABcB | c4 B2 G2 | A4 c4 | c4 dcBA | GABc dcBA | GAGF GA Bc | %38
w: se _ _ _ te- * * *|nir _ _ _ _ _ _ _|coi,|sans de _ _ _|_ _ qui-|bus, il|faut se _ _ _|te- * * * nir _ _ _|_ _ _ _ _ _ _ _|
 G4 F4 | c4 dcBA | d8 | c8 | A4 c4 | F4 G4 | ^F4 G4 | G4 B4 | cB AG A B2 A | B8 | z4 A4 | G6 G2 | %50
w: * coi,|se te- * * *|nir|_|coi, se|te- *|coi, se|te- *|nir _ _ _ _ _ _|coi,|car|fem- me|
 F4 A4 | B8 | z2 A2 B4 | A2 G2 F4 | G2 c2 A2 G2 | A8 | A6 A2 | G4 c3 G | d8 | ^c8 | A4 cB AG | %61
w: qui _|dort,|car- fem-||* me qui _|dort,|pour ar-|gent, se ré-|veil-|le,|pour ar- * * *|
 A=Bcd edcB | A4 c3 B | c2 d2 cB AG | AGAB c4 | d8 | A2 A2 A4 | c6 B2 | c4 d4 | cB AG AGAB | c8 | %71
w: gent, _ _ _ _ _ _ _|_ se ré-|veil- * * * * *||le,|pour ar- gent,|se ré-|veil- *|||
 A8 |] %72
w: le.|
V:2
 F4 G4 | A4 G4 | B2 A2 G2 F2- | F2 E2 F4 | z8 | F4 F2 E2 | D4 _E2 D2 | C4 C4 | z2 F2 D4 | %9
w: d'ar- *|* gent,|c'est * * *|* * dou-||leur non *|pa- reil- le,|c'est dou-|leur non|
 F4 C2 D2 | C4 A,4 | C4 D4 | D4 D2 _E2 | D4 D4 | F4 G4 | F4 D2 G2 | F2 D2 E2 G2 | F8 | z8 | D4 G4 | %20
w: pa- reil- le,|c'est dou-|leur non|pa- reil- le,|c'est dou-|leur non|pa- reil- reil-|le! * * *|je||le dis,|
 D2 F2 C4 | D8 | D4 E4 | F6 F2 | F8 | F8 | F4 GABG | ^F8 | D4 D4 | A2 F2 G2 D2 | F8 | C8 | %32
w: _ _ je|sais|bien pour-|quoi: sans|de|qui-|bus, il * * *|faut|se te-|nir _ _ coi,|sans|de|
 z2 F2 FGAB | GFGA BA E2 | C4 E4- | E4 D4 | D4 DEGF | EFED EFGA | F2 E2 F4 | C4 DE F2 | GFED EFGA | %41
w: qui- bus, _ _ _|_ _ _ _ _ _ il|faut se|_ te-|nir coi, * * *|se _ _ _ _ _ _ _|_ _ te-|te- nir * *|se _ _ _ _ _ _ _|
 GFED E F2 E | F4 A4 | D6 B,C | D8 | D4 D4 | EDFE C D2 C | F8 | F8 | D6 D2 | D4 C4 | F8 | %52
w: _ _ _ _ _ _ _|te- nir|coi, se _|te-|nir coi,|car _ _ _ _ _ _|fem-|me|qui dort,|car _|fem-|
 z2 F2 F4- | F2 C4 D2 | E4 F2 E2 | E8 | F6 F2 | D4 E3 D | ^F2 G2 A2 G2 | A2 GF E4 | F4 C2 EG | %61
w: me qui||dort, pour _|ar-|gent, se|ré- veil- le,|pour * * *|* * * ar-|gent, se * *|
 C4 E4 | F4 G3 E | F4 AGFE | D2 F4 E2 | F8 | F2 F2 F4 | G6 E2 | F8 | AGFE D2 F2- | F4 E4 | F8 |] %72
w: ré- _|_ veil- le,|pour * * * *||ar-|gent, se ré-|veil- le,|Fau-|||te|
V:3
 z8 | z8 | z8 | z8 | c4 c2 B2 | A4 c4 | F2 G2 G2 B2 | G4 A4 | z2 d2 B2 G2 | d2 d2 c2 B2 | G4 F4 | %11
w: ||||d'ar- gent, c'est|dou- leur|non pa- reil- le,|c'est dou-|leur non pa-|reil- le, c'est *|* dou-|
 A4 F4 | d2 A2 B2 c2 | A4 B4 | d4 d4- | d2 A2 B2 c2 | A2 G2 A4 | A8 | z8 | z4 G4 | F2 c4 G2 | A8 | %22
w: leur non|pa- reil- le, c'est|* dou-|leur non|* pa- reil- le!|Si * *|je||le|dis, _ je|sais|
 B4 c4 | c6 d2 | d8 | c8 | A3 c d3 e | d8 | d4 dcBA | d2 Bc dcBA | cB AG FGAB | A8 | z4 d4 | %33
w: bien pour-|quoi: sans|de|qui|bus, _ il _|faut|se te- _ _ _|nir coi, * * * * *|sans _ _ _ _ _ _ _|de|qui-|
 ed c2 d2 cB | F4 G4- | G4 B4- | B4 A4 | c4 G4 | c8 | A8 | B4 GA Bc | GAGF GA Bc | c4 z2 c2 | %43
w: bus, _ _ _ il *|faut se|_ te|_ nir|coi, se|te-|nir|coi, se _ _ _|_ _ _ _ _ _ _ _|te- nir|
 d4 d4 | A4 B4- | B4 dcBA | cdce f3 _e | d8 | z4 c4 | B6 B2 | A8 | d8 | z2 c2 d4 | A2 c4 A2 | %54
w: coi, se|te- nir|_ coi, * * *|car _ _ _ _ _|fem-|me|qui dort,|car|fem-|me qui||
 G2 A4 =B2 | ^c8 | d6 c2 | =B4 G2 G2 | A2 =B2 c2 d2 | e8 | dcBA GFED | EGAG A=Bcd | A4 c2 c2 | %63
w: dort, pour _|ar-|gent, se|ré- veil- le,|pour * * *|ar-|gent, _ _ _ se * * *|ré- _ _ _ _ _ _ _|_ veil- le,|
 A2 B2 c4 | ABcB G2 B2 | A8 | c2 c2 c4 | c4 c4 | A4 B4 | c4 ABcB | G4 A2 B2 | c8 |] %72
w: pour * *||ar-|gent, se ré-|veil- le.|Fau- *|||te|
V:4
 z8 | z8 | z8 | z8 | F,4 A,2 G,2 | F,6 C,2 | B,,2 B,,2 C,2 B,,2 | C,4 F,,4 | z4 z2 G,,2 | %9
w: ||||d'ar- gent, c'est|dou- leur|non pa- reil- le,|c'est dou-|leur|
 B,,2 D,2 _E,2 B,,2 | C,4 D,4 | F,4 B,,4 | G,,2 D,2 G,2 C,2 | D,4 G,4 | D,4 G,,4 | %15
w: non pa- reil- le,|c'est dou-|leur non|pa- reil- le, c'est|* dou-|leur non|
 B,,2 D,2 G,2 _E,2 | D,2 B,,2 A,,4 | D,8 | z8 | z8 | B,,2 F,2 E,4 | D,8 | G,4 C,4 | F,6 D,2 | %24
w: * pa- reil- le!|Si * *|le|||le dis, je|sais|bien pour-|quoi: sans|
 B,,8 | F,8 | D,4 G,4 | D,8 | G,4 G,4 | D,4 G,4 | F,E,F,G, F,E,F,G, | F,8 | z4 D,4 | C,4 B,,2 C,2 | %34
w: de|qui-|bus, il|faut|se te-|nir coi,|sans _ _ _ _ _ _ _|de|qui-|bus, il *|
 F,4 C,D,E,F, | C,4 G,4- | G,4 D,4 | C,8- | C,4 F,4 | F,4 D,4 | G,8 | C,8 | F,4 z2 F,2 | %43
w: faut se _ _ _|te- nir|_ coi,|se|_ te-|nir coi,|se|_|te- nir|
 B,4 B,2 G,2 | D,4 G,4- | G,4 G,4 | C,4 F,4 | B,8 | F,8 | G,6 G,2 | D,4 F,4 | B,,8 | F,4 B,,4 | %53
w: coi, se _|te- nir|_ coi,|car _|fem-|me|qui dort,|car _|fem-|me qui|
 D,2 E,2 F,2 D,2 | C,2 A,,2 D,2 E,2 | A,,8 | D,4 F,4 | G,4 C,3 =B,, | C,2 D,2 ^F,2 =B,2 | A,8 | %60
w: |* dort, pour _|ar-|gent, se|ré- veil- le,|pour * * *|ar-|
 D,4 E,D, C,B,, | A,,6 E,2 | D,4 E,3 C, | F,2 B,2 F,4 | D,B,,A,,G,, C,4 | D,8 | F,2 F,2 F,4 | %67
w: gent,- se * * *|ré- veil-|le, pour *|||ar-|gent, se ré-|
 E,6 C,2 | F,4 B,4 | F,4 D,B,,A,,G,, | C,8 | [F,,F,]8 |] %72
w: veil- le.|||||

